X:1
T:Title
%%score { ( 1 3 ) | 2 }
L:1/8
M:3/4
K:G
V:1 treble nm="Grand Piano"
V:3 treble 
V:2 bass 
V:1
 z2 z2[Q:1/4=94] [B,D][B,G] | [DB]3 [DB] [CA][DB] | [B,G]2 [B,D]2 GB | d3 d ^cd |[M:2/4] B4 | %5
[M:1/4] [B,D][B,G] |[M:3/4] [DB]3 [DB] [CA][DB] | [B,G]2 [B,D]2 [DG][DF] | [CE]3 [Ec] [DB][CA] | %9
[M:2/4] [G,B,G]4 |[M:1/4] Bc |[M:3/4] [Bd]4 z2 | [DGB]2 [DFA]2 AB | [Ac]4 z2 |[M:2/4] [DGB]4 | %15
[M:1/4] BA |[M:3/4] [B,G]4[K:bass][K:treble] z2 | [Ec]2 E2 AG |[M:13/16] z DDG[GB]3/2[FA] | %19
[M:2/4] [B,DG]4 |] %20
V:2
 z2 z2 [G,,G,][G,,G,] | [G,,G,]3 [G,,G,] [G,,G,][G,,G,] | %2
 [G,,D,]2 [G,,G,]2[K:treble] [G,B,D][G,DG] | [G,B,G]3 [G,B,G] [G,_B,G][G,=B,G] | %4
[M:2/4][K:bass] [G,D]4 |[M:1/4] [G,,G,][G,,G,] |[M:3/4] [G,,G,]3 [G,,G,] [G,,G,][G,,G,] | %7
 [G,,D,]2 [G,,G,]2 [B,,G,][B,,G,] | [C,G,]3 [C,G,] [D,G,][D,F,] |[M:2/4] G,,4 | %10
[M:1/4][K:treble] GA |[M:3/4] G,G, G,[K:bass]G, G,G, | D,2 D,2[K:treble] FG | D,D, D,D, D,D, | %14
[M:2/4] G,4 |[M:1/4] DC |[M:3/4] [G,,D,]G,, G,,B,, [D,F,D][G,=F] | [C,G,]2 [C,C]2 z2 | %18
[M:13/16] [D,A,D][D,A,][D,A,][D,B,D][D,D]3/2[D,C] |[M:2/4] [G,,G,]4 |] %20
V:3
 x6 | x6 | x6 | x6 |[M:2/4] x4 |[M:1/4] x2 |[M:3/4] x6 | x6 | x6 |[M:2/4] x4 |[M:1/4] x2 | %11
[M:3/4] DD D[DBd] [DAc][DGB] | x6 | DD D[DAc] [DBd][DAc] |[M:2/4] x4 |[M:1/4] x2 | %16
[M:3/4] z[K:bass] D, D,[K:treble][G,DG] AB | x6 |[M:13/16] F/-F/-F-<F z/ z/ z/ z/ z/ z | %19
[M:2/4] x4 |] %20

